X:283
T:score81
L:1/8
Q:1/4=96
M:4/4
I:linebreak $
K:D
 (F>A A2 F>E D2 | E>F A>F E4) | (F>A A2 F>E D2 | EF E>D D4) |$ (B>d d2 cA B2 | BdcA B4) | %6
 (B>d d2 cA B2 | BdcA B4) |] %8
